lib/preview/nrk-logo-preview-nrk-radio-with-bg.svg

<svg width="95" height="24" viewBox="0 0 95 24" fill="none" xmlns="http://www.w3.org/2000/svg">
<rect width="95" height="24" fill="#0A2343"/>
<path d="M6 18V6.00109H9.93719V18H6ZM15.2938 7.91078L17.5581 18H13.2492L10.5455 6.00109H12.9622C13.5163 5.9939 14.0541 6.18925 14.4745 6.55039C14.8956 6.89638 15.1849 7.3767 15.2938 7.91078ZM18.1495 18V6.00109H22.0867V18H18.1495ZM25.0605 10.5641C24.6362 10.5682 24.2188 10.4572 23.8525 10.243C23.4912 10.0341 23.1911 9.73396 22.9823 9.3726C22.7678 9.00633 22.6568 8.58876 22.661 8.16432C22.6561 7.74246 22.7672 7.32738 22.9823 6.96443C23.1933 6.60699 23.4931 6.31009 23.8525 6.10252C24.2189 5.8885 24.6362 5.77751 25.0605 5.78138C25.4822 5.77684 25.8971 5.88793 26.2602 6.10252C26.616 6.31191 26.9127 6.60856 27.122 6.96443C27.3368 7.32748 27.4479 7.74249 27.4433 8.16432C27.4473 8.58873 27.3363 9.00623 27.122 9.3726C26.9149 9.73238 26.6179 10.0323 26.2602 10.243C25.8971 10.458 25.4824 10.5691 25.0605 10.5641ZM28.0516 18V6.00109H31.9892V18H28.0516ZM36.9737 12.5582C36.9848 12.5699 37.0693 12.7079 37.2272 12.9723C37.3851 13.2367 37.5906 13.5747 37.8439 13.9863C38.0974 14.3977 38.3649 14.8343 38.6463 15.296C38.9278 15.7577 39.1926 16.1944 39.4408 16.6058C39.6881 17.0172 39.9697 17.4819 40.2857 18H35.9598C35.6893 17.5606 35.4441 17.1635 35.2245 16.8086C35.0048 16.4537 34.7713 16.0706 34.5238 15.6594C34.2758 15.2485 34.0306 14.8485 33.7882 14.4595C33.5458 14.0704 33.3375 13.7296 33.1633 13.4371C32.9883 13.1443 32.8671 12.9471 32.7997 12.8455C32.6325 12.5934 32.5336 12.3023 32.5127 12.0005C32.5294 11.7109 32.6226 11.431 32.7828 11.1891C32.8503 11.0764 32.9743 10.8764 33.1545 10.5891C33.3348 10.3018 33.546 9.96105 33.7882 9.56672C34.0304 9.17239 34.2756 8.7696 34.5238 8.35837C34.772 7.94715 35.0056 7.56124 35.2245 7.20071C35.4445 6.84055 35.6897 6.44059 35.9598 6.00081H40.2857L36.9396 11.4595C36.8361 11.6216 36.7777 11.8083 36.7706 12.0005C36.7818 12.2023 36.8528 12.3963 36.9737 12.5582Z" fill="white"/>
<path d="M50.7404 13.0412C50.9652 13.0068 51.187 12.955 51.4038 12.8863C51.8431 12.7496 52.2489 12.5223 52.5949 12.219C52.9395 11.9113 53.2107 11.5303 53.3889 11.104C53.5891 10.6137 53.6868 10.0876 53.6761 9.55814C53.6836 8.9405 53.5538 8.32887 53.296 7.76757C53.0296 7.21309 52.591 6.75968 52.0457 6.47491C51.3182 6.12154 50.5138 5.95595 49.7059 5.99335H44.8572V17.9885H46.6142V13.3932H49.1988L52.1893 17.9885H54.2502L51.4457 13.8327L50.7404 13.0412ZM50.7703 7.69126C51.1202 7.82464 51.4127 8.07561 51.5978 8.40111C51.7913 8.77941 51.8844 9.20111 51.8681 9.62572C51.8892 10.0957 51.7749 10.5619 51.539 10.9688C51.3155 11.3154 50.9824 11.5771 50.5928 11.7122C50.123 11.8737 49.6282 11.951 49.1315 11.9403H46.6142V7.46317H49.3339C49.8229 7.4469 50.3104 7.52433 50.7703 7.69126Z" fill="#8BB5EB"/>
<path d="M63.3564 16.9244C63.2329 16.9357 63.1084 16.9171 62.9937 16.87C62.879 16.8228 62.7774 16.7487 62.6975 16.6538C62.5408 16.3831 62.4756 16.0691 62.5117 15.7584L62.5454 12.2784C62.5492 11.9135 62.5037 11.5497 62.4103 11.1969C62.3281 10.8876 62.1908 10.5957 62.0048 10.3353C61.8168 10.0807 61.5781 9.86791 61.3037 9.7102C60.9849 9.52919 60.6401 9.39818 60.2816 9.32186C59.8431 9.22713 59.3954 9.1818 58.9469 9.18671C58.591 9.18647 58.2355 9.20895 57.8825 9.25401C57.549 9.29596 57.2188 9.36086 56.8942 9.44828C56.5932 9.53006 56.2971 9.62887 56.0073 9.74423L55.8045 11.1803C56.0861 11.0789 56.3537 10.9944 56.6073 10.9268C56.8609 10.8593 57.1058 10.803 57.3419 10.7579C57.5737 10.7136 57.8077 10.6826 58.043 10.6653C58.2737 10.648 58.5018 10.6394 58.7273 10.6396C59.0717 10.6324 59.4157 10.6722 59.7494 10.7579C59.9929 10.8189 60.2168 10.941 60.3999 11.1127C60.5628 11.2798 60.6793 11.4865 60.7377 11.7124C60.8098 11.9911 60.8439 12.2781 60.8391 12.5659L60.8371 12.9897L58.8624 13.1234C58.187 13.1423 57.5216 13.2914 56.9026 13.5624C56.4395 13.7651 56.0397 14.0891 55.7454 14.5001C55.4957 14.8659 55.3631 15.2989 55.3653 15.7418C55.3621 16.1574 55.4638 16.567 55.6609 16.9329C55.8675 17.3087 56.1785 17.6168 56.5563 17.8198C57.0172 18.0595 57.5323 18.176 58.0515 18.1577C58.538 18.1689 59.0222 18.0887 59.4791 17.9212C59.8742 17.7667 60.2356 17.5372 60.5435 17.2454C60.6603 17.1333 60.7712 17.0151 60.8757 16.8915C60.9086 17.0663 60.9704 17.2345 61.0587 17.389C61.2092 17.6478 61.4408 17.8496 61.7176 17.9634C62.0235 18.0863 62.351 18.1466 62.6806 18.1408C62.7819 18.1408 62.8805 18.138 62.9762 18.1324C63.0703 18.127 63.1636 18.1129 63.255 18.0902C63.3451 18.0676 63.4265 18.0479 63.5 18.031C63.5662 18.0162 63.6311 17.9965 63.6943 17.9719L63.8801 16.8399C63.7869 16.872 63.6906 16.8946 63.5929 16.9075C63.5145 16.9181 63.4355 16.9237 63.3564 16.9244ZM60.5435 16.1642C60.3603 16.309 60.162 16.4336 59.9521 16.5359C59.7432 16.6376 59.5217 16.7115 59.2935 16.7555C59.0568 16.8012 58.8163 16.8239 58.5753 16.8231C58.2999 16.8309 58.0261 16.779 57.7727 16.671C57.5666 16.5816 57.3927 16.4313 57.2743 16.2402C57.1573 16.0377 57.0988 15.8066 57.1054 15.5728C57.0891 15.2912 57.1663 15.0121 57.325 14.7788C57.509 14.5643 57.7583 14.416 58.0346 14.3565C58.4663 14.2549 58.9093 14.2094 59.3527 14.2213H60.8318L60.8241 15.8983C60.7383 15.9947 60.6444 16.0838 60.5435 16.1642Z" fill="#8BB5EB"/>
<path d="M71.3483 9.59668C71.3311 9.58993 71.3151 9.58172 71.2976 9.57496C70.9818 9.45604 70.657 9.36282 70.3262 9.2962C69.9395 9.22005 69.5461 9.18337 69.152 9.1867C68.4139 9.18217 67.6879 9.37462 67.049 9.74421C66.3893 10.1278 65.8485 10.6861 65.4862 11.3576C65.0703 12.151 64.8666 13.0385 64.8949 13.9338C64.8755 14.7067 65.0285 15.4743 65.3426 16.1808C65.6167 16.7842 66.0637 17.2927 66.6269 17.6421C67.2324 17.9986 67.9262 18.1772 68.6286 18.1574C69.0595 18.16 69.4887 18.1032 69.9041 17.9885C70.3181 17.8697 70.7133 17.6934 71.0783 17.4647C71.2047 17.3867 71.3317 17.2992 71.4579 17.2077L71.6699 17.9885H73.0718V5.25L71.3486 5.48655L71.3483 9.59668ZM70.4444 16.544C70.0592 16.6958 69.6504 16.7788 69.2365 16.7892C68.7537 16.8033 68.2758 16.6896 67.8511 16.4595C67.456 16.2259 67.1477 15.8701 66.9727 15.4458C66.7535 14.9014 66.6499 14.3173 66.6685 13.7307C66.6488 13.1299 66.7642 12.5324 67.0064 11.9822C67.2128 11.5357 67.552 11.164 67.9778 10.9178C68.4411 10.6656 68.9629 10.5403 69.4902 10.5546C69.7615 10.5539 70.0325 10.5738 70.3008 10.6138C70.5672 10.655 70.8299 10.7172 71.0864 10.7998C71.1689 10.826 71.2599 10.861 71.3483 10.8931V16.0999C71.0609 16.2752 70.7581 16.4238 70.4436 16.544H70.4444Z" fill="#8BB5EB"/>
<path d="M75.7063 17.9885H77.4295V9.20333L75.7063 9.45672V17.9885Z" fill="#8BB5EB"/>
<path d="M77.1845 5.66391C77.0092 5.55673 76.8072 5.50109 76.6017 5.50339C76.3936 5.50176 76.1891 5.5573 76.0104 5.66391C75.8342 5.76709 75.6862 5.91217 75.5796 6.08627C75.4724 6.26165 75.4168 6.46365 75.4191 6.66915C75.4174 6.87723 75.4729 7.08174 75.5796 7.26042C75.6828 7.43724 75.8316 7.58311 76.0104 7.68278C76.1908 7.78426 76.3947 7.8367 76.6017 7.83484C76.8061 7.83734 77.0074 7.78482 77.1845 7.68278C77.3584 7.58234 77.5015 7.43629 77.5984 7.26042C77.7 7.08002 77.7525 6.87617 77.7505 6.66915C77.753 6.46475 77.7004 6.26343 77.5984 6.08627C77.4981 5.91299 77.3558 5.76775 77.1845 5.66391Z" fill="#8BB5EB"/>
<path d="M87.7011 11.2561C87.3645 10.6102 86.8444 10.0782 86.2062 9.72705C85.5022 9.35321 84.7138 9.16713 83.917 9.18672C83.1128 9.16828 82.3176 9.36047 81.6106 9.74424C80.958 10.1094 80.4243 10.6548 80.0732 11.3152C79.6919 12.0562 79.5031 12.8811 79.5241 13.7142C79.5026 14.5408 79.6793 15.3605 80.0394 16.1048C80.363 16.7545 80.8793 17.2886 81.5177 17.634C82.205 17.9939 82.9721 18.174 83.7478 18.1575C84.5598 18.1736 85.3624 17.9816 86.0792 17.5999C86.7487 17.2349 87.2975 16.6831 87.6591 16.0118C88.0514 15.2622 88.2462 14.4249 88.2251 13.5791C88.2442 12.7734 88.0643 11.9755 87.7011 11.2561ZM86.1045 15.3867C85.9148 15.8258 85.5932 16.1949 85.1841 16.4427C84.7731 16.678 84.3061 16.7977 83.8325 16.7893C83.3682 16.8008 82.9104 16.6774 82.5147 16.4342C82.1232 16.174 81.8176 15.8038 81.6362 15.3701C81.4064 14.8136 81.2971 14.2147 81.3155 13.6128C81.2955 13.0273 81.405 12.4447 81.6362 11.9064C81.8258 11.4834 82.1415 11.1294 82.5401 10.8928C82.9664 10.6582 83.4475 10.5416 83.9339 10.5549C84.3136 10.5455 84.691 10.6175 85.0405 10.7661C85.3466 10.9042 85.6137 11.1161 85.8179 11.3828C86.0356 11.6727 86.1934 12.003 86.2822 12.3544C86.3879 12.7654 86.439 13.1885 86.4343 13.6128C86.454 14.221 86.3415 14.8263 86.1045 15.3867Z" fill="#8BB5EB"/>
</svg>

<svg xmlns="http://www.w3.org/2000/svg" viewBox="0 0 95 24"><path fill="#0A2343" d="M0 0h95v24H0z"/><path fill="#fff" d="M6 18V6.001h3.937V18H6Zm9.294-10.09L17.558 18H13.25L10.545 6.001h2.417a2.276 2.276 0 0 1 1.513.55c.42.345.71.826.819 1.36ZM18.149 18V6.001h3.938V18h-3.938Zm6.912-7.436a2.382 2.382 0 0 1-2.4-2.4 2.301 2.301 0 0 1 .321-1.2 2.41 2.41 0 0 1 3.278-.861c.356.209.653.506.862.861.215.363.326.778.321 1.2a2.35 2.35 0 0 1-.321 1.209 2.4 2.4 0 0 1-.862.87 2.3 2.3 0 0 1-1.2.321ZM28.05 18V6.001h3.938V18h-3.937Zm8.923-5.442c.01.012.095.15.253.414.158.265.364.603.617 1.014a315.936 315.936 0 0 1 1.597 2.62c.247.411.529.876.845 1.394H35.96c-.27-.44-.516-.837-.736-1.191-.22-.355-.453-.738-.7-1.15-.248-.41-.493-.81-.736-1.2-.242-.389-.45-.73-.625-1.022-.175-.293-.296-.49-.363-.591a1.747 1.747 0 0 1-.287-.845c.016-.29.11-.57.27-.812.067-.113.191-.313.371-.6s.392-.628.634-1.022c.242-.395.488-.797.736-1.209a516 516 0 0 1 .7-1.157L35.96 6h4.326l-3.346 5.458a1.08 1.08 0 0 0-.17.542c.012.201.083.395.204.557Z"/><path fill="#8BB5EB" d="M50.74 13.041c.225-.034.447-.086.664-.155a3.29 3.29 0 0 0 1.19-.667c.346-.308.617-.689.795-1.115.2-.49.298-1.016.287-1.546a4.169 4.169 0 0 0-.38-1.79 2.851 2.851 0 0 0-1.25-1.293 4.843 4.843 0 0 0-2.34-.482h-4.849v11.995h1.757v-4.595H49.2l2.99 4.595h2.061l-2.804-4.155-.706-.792Zm.03-5.35c.35.134.643.385.828.71.193.378.286.8.27 1.225.021.47-.093.936-.329 1.343a1.845 1.845 0 0 1-.946.743c-.47.162-.965.239-1.462.228h-2.517V7.463h2.72c.489-.016.976.061 1.436.228ZM63.356 16.924a.77.77 0 0 1-.659-.27 1.453 1.453 0 0 1-.185-.896l.033-3.48a4.06 4.06 0 0 0-.135-1.081 2.656 2.656 0 0 0-.405-.862 2.29 2.29 0 0 0-.701-.625 3.58 3.58 0 0 0-1.022-.388 6.01 6.01 0 0 0-1.335-.135c-.356 0-.712.022-1.065.067a7.307 7.307 0 0 0-.988.194c-.3.082-.597.18-.887.296l-.203 1.436a9.92 9.92 0 0 1 1.538-.422c.232-.044.466-.075.701-.093.23-.017.459-.026.684-.025.345-.008.689.032 1.022.118.244.06.468.183.65.355.164.167.28.373.339.6.072.278.106.565.101.853l-.002.424-1.975.133a5.253 5.253 0 0 0-1.96.44 2.808 2.808 0 0 0-1.157.937c-.25.366-.382.799-.38 1.242-.003.415.099.825.296 1.19.206.377.517.685.895.888.461.24.976.356 1.495.338.487.01.971-.07 1.428-.237a3.288 3.288 0 0 0 1.065-.676c.116-.112.227-.23.332-.354.033.175.094.344.183.498.15.259.382.46.659.574.305.123.633.184.963.178.1 0 .2-.003.295-.009.094-.005.188-.02.279-.042l.245-.059c.066-.015.131-.034.194-.06l.186-1.131c-.093.032-.19.055-.287.067a1.89 1.89 0 0 1-.237.017Zm-2.813-.76a3.25 3.25 0 0 1-.59.372c-.21.102-.431.175-.66.22a3.723 3.723 0 0 1-.718.067 1.91 1.91 0 0 1-.802-.152c-.206-.09-.38-.24-.499-.43a1.263 1.263 0 0 1-.169-.668 1.28 1.28 0 0 1 .22-.794c.184-.215.433-.363.71-.422a5.15 5.15 0 0 1 1.318-.136h1.479l-.008 1.677c-.086.097-.18.186-.28.266ZM71.348 9.597l-.05-.022a5.822 5.822 0 0 0-2.146-.388 4.15 4.15 0 0 0-2.103.557 4.14 4.14 0 0 0-1.563 1.614 5.195 5.195 0 0 0-.591 2.576 5.21 5.21 0 0 0 .448 2.247 3.35 3.35 0 0 0 1.284 1.461c.605.357 1.3.535 2.002.515.43.003.86-.054 1.275-.169.414-.118.81-.295 1.174-.523.127-.078.254-.166.38-.257l.212.78h1.402V5.25l-1.723.237v4.11Zm-.904 6.947a3.537 3.537 0 0 1-1.207.245 2.74 2.74 0 0 1-1.386-.33 2.114 2.114 0 0 1-.878-1.013 4.233 4.233 0 0 1-.305-1.715c-.02-.601.096-1.199.338-1.749.207-.446.546-.818.972-1.064a2.994 2.994 0 0 1 1.512-.363 5.112 5.112 0 0 1 1.596.245c.083.026.174.061.262.093V16.1c-.287.175-.59.324-.904.444ZM75.706 17.988h1.724V9.203l-1.724.254v8.531ZM77.184 5.664a1.094 1.094 0 0 0-.582-.16 1.137 1.137 0 0 0-.592.16 1.24 1.24 0 0 0-.43.422 1.094 1.094 0 0 0-.16.583c-.003.208.053.413.16.591.103.177.252.323.43.423.18.101.385.154.592.152.204.002.405-.05.582-.152.174-.1.317-.247.414-.423.102-.18.154-.384.153-.59a1.14 1.14 0 0 0-.153-.584 1.192 1.192 0 0 0-.413-.422ZM87.701 11.256a3.693 3.693 0 0 0-1.495-1.529 4.638 4.638 0 0 0-2.289-.54 4.613 4.613 0 0 0-2.306.557 3.896 3.896 0 0 0-1.538 1.571 4.97 4.97 0 0 0-.549 2.4 5.18 5.18 0 0 0 .515 2.39c.324.65.84 1.184 1.479 1.529.687.36 1.454.54 2.23.523a4.76 4.76 0 0 0 2.331-.557 3.933 3.933 0 0 0 1.58-1.588c.392-.75.587-1.587.566-2.433a4.897 4.897 0 0 0-.524-2.323Zm-1.596 4.13c-.19.44-.512.809-.92 1.057a2.626 2.626 0 0 1-1.353.346 2.403 2.403 0 0 1-1.317-.355 2.38 2.38 0 0 1-.879-1.064 4.263 4.263 0 0 1-.32-1.757 3.98 3.98 0 0 1 .32-1.707c.19-.423.505-.777.904-1.013a2.736 2.736 0 0 1 1.394-.338c.38-.01.757.063 1.106.211.307.138.574.35.778.617.218.29.375.62.464.971.106.411.157.835.152 1.259a4.205 4.205 0 0 1-.33 1.774Z"/></svg>
